X: 12309
T: Fairy's, The
R: mazurka
M: 3/4
K: Dmajor
|:f2 fd Ad|f2 fd Ad|f2 fe fd|ef gf ge|
f2 fd Ad|gf ed cB|Ac ec ec|1 d2 dc de:|2 d2 de fg||
|:a2 af df|b2 ba gf|g2 ge ce|a2 ag fe|
f2 fd Ad|gf ed cB|Ac ec ec|1 d2 de fg:|2 d2 dc de||
|:f2 fd Ad|f=f ^fd Ad|f=f ^f=f ^fd|ef gf ge|
f2 fd Ad|gf ed cB|Ac ec ec|1 d2 e2 =f2:|2 d2 de fg||
|:a^g af df|b^a b=a gf|gf ge ce|a^g a=g fe|
f=f ^fd Ad|gf ed cB|Ac ec ec|1 d2 de fg:|2 d2 d2 d2||

